X:1
M:4/4
K:G
L:1/8
C:Paul Spencer
D |GGFD EED2 |D>EDC B,3B, |DDGG FED2 |C>CB,G A,3B,|
CB,CD EFGE |DCB,C D3B, |CB,CD EFGE |AGFE F3A |
BAG6 |FED4 B,2 |C3A, D2D2 |G,7 :|
